icon/cg/quote-o.svg

<svg viewBox="0 0 24 24" fill="none" xmlns="http://www.w3.org/2000/svg" height="1em" width="1em">
  <path fill-rule="evenodd" clip-rule="evenodd" d="M20 5H4V19H20V5ZM4 3C2.89543 3 2 3.89543 2 5V19C2 20.1046 2.89543 21 4 21H20C21.1046 21 22 20.1046 22 19V5C22 3.89543 21.1046 3 20 3H4Z" fill="currentColor"/>
  <path d="M9.06723 9.19629H12.0672L9.93267 14.8038H6.93267L9.06723 9.19629Z" fill="currentColor"/>
  <path d="M14.0672 9.19629H17.0672L14.9327 14.8038H11.9327L14.0672 9.19629Z" fill="currentColor"/>
</svg>

<svg width="24" height="24" fill="none" xmlns="http://www.w3.org/2000/svg"><path fill-rule="evenodd" clip-rule="evenodd" d="M20 5H4v14h16V5ZM4 3a2 2 0 0 0-2 2v14a2 2 0 0 0 2 2h16a2 2 0 0 0 2-2V5a2 2 0 0 0-2-2H4Z" fill="currentColor"/><path d="M9.067 9.196h3l-2.134 5.608h-3l2.134-5.608ZM14.067 9.196h3l-2.134 5.608h-3l2.134-5.608Z" fill="currentColor"/></svg>
